packages/react/src/components/base/Icon/assets/icon-boat.svg

<svg width="24" height="24" viewBox="0 0 24 24" xmlns="http://www.w3.org/2000/svg" fill="currentColor"> <path d="M20.8434 10.0116L19.875 9.68906V5.25C19.875 4.75272 19.6775 4.27581 19.3258 3.92417C18.9742 3.57254 18.4973 3.375 18 3.375H13.125V2.25C13.125 1.95163 13.0065 1.66548 12.7955 1.4545C12.5845 1.24353 12.2984 1.125 12 1.125C11.7016 1.125 11.4155 1.24353 11.2045 1.4545C10.9935 1.66548 10.875 1.95163 10.875 2.25V3.375H6C5.50272 3.375 5.02581 3.57254 4.67418 3.92417C4.32255 4.27581 4.125 4.75272 4.125 5.25V9.68906L3.15656 10.0116C2.78292 10.1362 2.45803 10.3754 2.22799 10.6951C1.99795 11.0149 1.87445 11.3989 1.875 11.7928V14.25C1.875 20.3091 11.325 22.7409 11.7272 22.8412C11.9063 22.8863 12.0937 22.8863 12.2728 22.8412C12.675 22.7409 22.125 20.3091 22.125 14.25V11.7909C22.1252 11.3974 22.0015 11.0137 21.7715 10.6944C21.5414 10.375 21.2168 10.1361 20.8434 10.0116ZM6.375 5.625H17.625V8.93906L12.3553 7.18313C12.1248 7.10532 11.8752 7.10532 11.6447 7.18313L6.375 8.93906V5.625ZM19.875 14.25C19.875 17.6897 14.43 19.9153 12 20.5866C9.56813 19.9144 4.125 17.6897 4.125 14.25V12.0609L10.875 9.81094V15.75C10.875 16.0484 10.9935 16.3345 11.2045 16.5455C11.4155 16.7565 11.7016 16.875 12 16.875C12.2984 16.875 12.5845 16.7565 12.7955 16.5455C13.0065 16.3345 13.125 16.0484 13.125 15.75V9.81094L19.875 12.0609V14.25Z"/> </svg>

<svg viewBox="0 0 24 24" xmlns="http://www.w3.org/2000/svg" aria-hidden="true" fill="currentColor"><path d="m20.843 10.012-.968-.323V5.25A1.875 1.875 0 0 0 18 3.375h-4.875V2.25a1.125 1.125 0 1 0-2.25 0v1.125H6A1.875 1.875 0 0 0 4.125 5.25v4.44l-.968.322a1.875 1.875 0 0 0-1.282 1.78v2.458c0 6.06 9.45 8.49 9.852 8.591.18.045.367.045.546 0 .402-.1 9.852-2.532 9.852-8.591v-2.46a1.875 1.875 0 0 0-1.282-1.778M6.375 5.625h11.25v3.314l-5.27-1.756a1.1 1.1 0 0 0-.71 0L6.375 8.94zm13.5 8.625c0 3.44-5.445 5.665-7.875 6.337-2.432-.673-7.875-2.897-7.875-6.337v-2.19l6.75-2.25v5.94a1.125 1.125 0 1 0 2.25 0V9.81l6.75 2.25z"/></svg>
